!!!!SEGMENT: pl-wnifc--6439-n--013_anonim--mazur-no-13.krn
!!!cenid: 18xx:3956
!!!COM: Anonim
!!!COM-rismID: pe30004985
!!!CDT:
!!!CNT:
!!!OTL: [Mazur] No. 13
!!!PDT: 1827
!!!AGN:
!!!SMS-siglum: PL-Wnifc
!!!SMS-shelfmark: 6439/n
!!!SMS-shelfwork: 013 W
!!!SMS-variant:
!!!SMS-altvar:
!!!NIFC-rismSourceID: 1001011210
!!!NIFC-rismChildID: 1001011245
!!!NIFC-islandoraID: nifc:212734
!!!URL-pdf-islandora: https://repozytorium.nifc.pl/islandora/object/nifc:212734/datastream/PDF/view
!!!URL-scan: https://polish.musicsources.pl/pl/lokalizacje/galeria/druki-muzyczne/16857 @EN{Scan on Polish Music Sources Website} @PL{Skany w portalu Dziedzictwo Muzyki Polskiej w otwartym dostępie}
!!!IIIF:
!!!ONB-nifc: str. 9 pod koniec 2. linii (skan 0005)
!!!AIN: 1 piano
!!!key: D
**kern	**kern
*part1	*part1
*staff2	*staff1
*I"Piano	*
*I'P-no	*
*Ipiano	*Ipiano
*ICklav	*ICklav
*clefF4	*clefG2
*k[f#c#]	*k[f#c#]
*D:	*D:
*M3/8	*M3/8
=1	=1
!	!LO:TX:a:Bi:t=No. 13
*tremolo	*
8D\L 8F# 8A	16dd\LL
.	16d/
8D\ 8F# 8A	16f#/
.	16a/
8D\J 8F# 8A	16dd/
.	16ff#/JJ
=2	=2
.	8qbb/
8D\L 8F# 8A	16aa\LL
.	16gg#X\
8D\ 8F# 8A	16aa\
.	16bb\J
8D\J 8F# 8A	8aa\J
!LO:LB:g=original	!LO:LB:g=original
=3	=3
.	8qbb/
8D\L 8F# 8A	16aa\LL
.	16gg#X\
8D\ 8F# 8A	16aa\
.	16bb\J
8D\J 8F# 8A	8aa\J
=4	=4
8D\L 8F# 8A	16gg#X\LL
.	16aa\
8D\ 8F# 8A	16bb\
.	16aa\J
8D\J 8F# 8A	8ff#\J
=5	=5
8AA\L 8C# 8E 8A	16aa\LL
.	16gg\
8AA\ 8C# 8E 8A	16ee\
.	16a\
8AA\J 8C# 8E 8A	16cc#\
.	16ee\JJ
=6	=6
8D\L 8F# 8A	8dd\L
.	32qqee/LLL
.	32qqdd/
.	32qqcc#/JJJ
8D\ 8F# 8A	16dd\L
.	16ff#\
8D\J 8F# 8A	16aa\
.	16ddd\JJ
=7	=7
8AA\L 8C# 8E 8A	16aa\LL
.	16gg\
8AA\ 8C# 8E 8A	16ee\
.	16gg\
8AA\J 8C# 8E 8A	16ff#\
.	16cc#\JJ
=8	=8
.	8qee/
8D\ 8F# 8A	8dd\
4D\ 4F# 4A	4d/
=9:|!|:	=9:|!|:
8AA\L 8C# 8E 8A	16ee\LL
.	16ff#\
8AA\ 8C# 8E 8A	16gg\
.	16aa\J
8AA\J 8C# 8E 8A	8ee\J 8gg
=10	=10
8D\L 8F# 8A	16ee\LL
.	32gg\L
.	32ff#\JJJ
8D\ 8F# 8A	8dd\L
8D\J 8F# 8A	16ff#\L
.	16a\JJ
=11	=11
8AA\L 8C# 8E 8A	16.g/LL
.	32a/JJk
8AA\ 8C# 8E 8A	16cc#\LL
.	16a\
8AA\J 8C# 8E 8A	16ee\
.	16cc#\JJ
=12	=12
8D\L 8F# 8A	16dd\LL
.	16ddM\J
8D\ 8F# 8A	8ff#\
8D\J 8F# 8A	16bb\L
.	16aa\JJ
!LO:LB:g=original	!LO:LB:g=original
=13	=13
8AA\L 8C# 8E 8A	16.ee\LL
.	32ff#~\K
8AA\ 8C# 8E 8A	16gg\
.	16ff#\
8AA\J 8C# 8E 8A	16bb\
.	16aa\JJ
=14	=14
8D\L 8F# 8A	16gg#X\LL
.	16aa\
8D\ 8F# 8A	16bb\
.	16aa\
8D\J 8F# 8A	16ggn\
.	16ff#\JJ
=15	=15
8AA\L 8C# 8E 8A	16ee\LL
.	16dd\
8AA\ 8C# 8E 8A	16cc#\
.	16aa\
8AA\J 8C# 8E 8A	16gg\
.	16ee\JJ
=16	=16
8D\ 8F# 8A	16ee\LL
.	16dd\JJ
4D\ 4F# 4A	4dd\
=:|!	=:|!
*-	*-
!!!system-decoration: {(s1,s2)}
!!!ENC: Marta Opryszak
!!!END: 2022-07-28
!!!ENC: Julita Ruszuk
!!!END: 2022-08-25
!!!YEC: Copyright 2022 Narodowy Instytut Fryderyka Chopina (https://polishscores.org)
!!!YEM: License CC-BY-4.0 (https://creativecommons.org/licenses/by/4.0)
